icons/filled/brand-facebook.svg

<svg xmlns="http://www.w3.org/2000/svg" width="24" height="24" viewBox="0 0 24 24" fill="currentColor"><path d="M18 2a1 1 0 0 1 .993 .883l.007 .117v4a1 1 0 0 1 -.883 .993l-.117 .007h-3v1h3a1 1 0 0 1 .991 1.131l-.02 .112l-1 4a1 1 0 0 1 -.858 .75l-.113 .007h-2v6a1 1 0 0 1 -.883 .993l-.117 .007h-4a1 1 0 0 1 -.993 -.883l-.007 -.117v-6h-2a1 1 0 0 1 -.993 -.883l-.007 -.117v-4a1 1 0 0 1 .883 -.993l.117 -.007h2v-1a6 6 0 0 1 5.775 -5.996l.225 -.004h3z"/></svg>

<svg xmlns="http://www.w3.org/2000/svg" width="24" height="24" fill="currentColor"><path d="M18 2a1 1 0 0 1 .993.883L19 3v4a1 1 0 0 1-.883.993L18 8h-3v1h3a1 1 0 0 1 .991 1.131l-.02.112-1 4a1 1 0 0 1-.858.75L17 15h-2v6a1 1 0 0 1-.883.993L14 22h-4a1 1 0 0 1-.993-.883L9 21v-6H7a1 1 0 0 1-.993-.883L6 14v-4a1 1 0 0 1 .883-.993L7 9h2V8a6 6 0 0 1 5.775-5.996L15 2z"/></svg>
